X:228
%%etbk:tnset id:71,pos:2,rep:3x,ant:
%%etbk:wsite http://www.thesession.org/tunes/display/698
%%etbk:video src:ytube,cde:c2E25fA_fSA,desc:
%%etbk:pldat 2016-09-13T16:32,2016-09-11T16:43,2016-09-10T16:18,2016-09-07T15:31,2016-07-26T17:12,2016-06-13T17:57,2016-03-17T17:20,2016-03-16T16:35,2016-03-15T17:29,2016-03-14T19:26,2016-02-26T17:47,2016-01-27T17:34,2016-01-26T17:45,2016-01-19T16:08,2016-01-03T13:39,2016-01-02T14:34,2016-01-01T15:28,2015-12-31T15:11,2015-12-29T16:22,2015-12-28T16:28,2015-12-27T14:51,2015-09-29T16:01,2015-05-26T18:28,2015-04-21T15:14,2015-03-26T18:06,2014-09-25T18:39,2014-09-11T18:17,2014-05-20T16:41,2014-03-23T15:42,2014-02-11T19:12,2013-10-24T18:19,2013-10-23T18:42,2013-10-11T18:45,2013-10-02T15:23,2013-05-07T18:20
T: Caves Of Kiltanon, The
Z: Piano Box Version by Martin Fleischmann
H: Created 2013-02-19 /  Last Modified 2013-02-19
M: 6/8
L: 1/8
R: jig
K: Gdor
|: "gm"!1!D!3!GA !3!B2!4!c | !3!d!5!g!4!f !3!d!2!c!1!A | !3!B2!5!d !4!cBA | "dm"!3!B!1!D!3!G !2!F!1!D!2!C |
"gm"!1!D!3!GA !3!BB!4!c | !3!d!5!g!4!f !3!d!2!c!1!A | !3!B!5!dd !4!cBA | "dm"!3!B!1!D!2!F "gm"!3!G3 :|
"gm"!1!G!3!ga !5!bag | "dm"!4!a!2!f!1!d !1!c!3!B!2!A | "gm"!3!B2!5!d !4!cBA | "dm"!3!BAG !2!A!1!F!5!d |
"gm"!1!d!3!ga !5!bag | "dm"!4!afd !1!d!2!d!1!d | "gm"!1!d!5!ba !3!gfd | "dm"!3!gdf "gm"!3!ggg |
"gm"!1!d!3!ga !5!bag | "dm"!4!a!2!f!1!d !1!c!3!B!2!A | "gm"!3!B2!5!d !4!cBA | "dm"!3!BA!1!G !2!A!1!F!2!A |
"gm"!3!B!1!G!3!B "C"!4!c2!3!c | "gm"!1!d!5!ba gf!1!d | !3!B2!5!d !4!cBA | "dm"!3!B!1!D!2!F "gm"!3!!1!G3 |
|:"gm"!3!B!1!G!5!d !3!BGd | "F"!2!A!1!F!4!c !2!AFA | "gm"!3!BGd !3!BG!5!d | "dm"!1!d!4!af "gm"!3!ggg |
"gm"!5!bag !4!agf | !3!gf!1!d !1!c!3!B!2!A | !3!B2!5!d !4!cBA | "dm"!3!B!1!D!2!F "gm"!3!G3 :|


